X: 37
T:The Cordal Jig
T:Morgan Rattler
M:6/8
L:1/8
R:jig
Z:Barney
K:D
BAF ~E3|FAF EFA|BAF EFA|B2A Bcd|BAF ~E3|FAF EFA|
def edc|B2A Bcd:||d2 e fed|cBc ecA|d2e fed|~f3 fga|
d2 e fed|cBc ecA|ded cBA|B2 A Bcd:||
